X:631
M:C
L:1/8
K:F
f>c d/c/B/A/ G2 F>A|C>FA>F c>FA>F|C>FA>f d/c/B/A/ G2|
f<d c>A G<g g>a|f>c f/e/d/c/ f<c c>a|f>dc>A G2 F c/4d/4e/|
f>c f/e/d/c/ f<c ca/g/|f>dc>A G<g g>a|f>cd>b c<aB<g|A>f cB/A/ G2 G2||

